icons/nodes_vect_y.svg

<?xml version="1.0" encoding="UTF-8" standalone="no"?><!DOCTYPE svg PUBLIC "-//W3C//DTD SVG 1.1//EN" "http://www.w3.org/Graphics/SVG/1.1/DTD/svg11.dtd"><svg width="100%" height="100%" viewBox="0 0 267 267" version="1.1" xmlns="http://www.w3.org/2000/svg" xmlns:xlink="http://www.w3.org/1999/xlink" xml:space="preserve" xmlns:serif="http://www.serif.com/" style="fill-rule:evenodd;clip-rule:evenodd;stroke-linecap:round;stroke-miterlimit:32.2;"><g id="Layer-1" serif:id="Layer 1"><g><path d="M226.893,31.874l0,2.447c-2.954,0.398 -5.225,1.258 -6.813,2.58c-2.204,1.853 -5.689,6.902 -10.452,15.149l-19.449,32.48l0,21.698c0,4.631 0.243,7.509 0.728,8.633c0.486,1.125 1.445,2.117 2.878,2.977c1.433,0.86 3.341,1.29 5.722,1.29l5.027,0l0,2.448l-50.341,0l0,-2.448l4.696,0c2.647,0 4.741,-0.463 6.286,-1.389c1.146,-0.617 2.05,-1.676 2.711,-3.175c0.486,-1.059 0.728,-3.837 0.728,-8.336l0,-17.993l-21.102,-38.434c-4.19,-7.586 -7.144,-12.051 -8.864,-13.396c-1.72,-1.345 -4.014,-2.04 -6.881,-2.084l0,-2.447l43,0l-0,2.447l-1.919,0c-2.602,0 -4.422,0.376 -5.457,1.125c-1.037,0.75 -1.555,1.544 -1.555,2.382c-0,1.587 1.764,5.578 5.292,11.973l16.207,29.702l16.141,-27.056c4.014,-6.615 6.02,-11.003 6.02,-13.164c0,-1.191 -0.573,-2.183 -1.72,-2.977c-1.5,-1.103 -4.255,-1.764 -8.269,-1.985l-0,-2.447l27.386,0Z" style="fill:#c00;fill-rule:nonzero;"/><path d="M165.288,88.764l-28.088,-49.778l-6.906,-0.863l-2.813,-7.237l19.876,0.123l29.361,55.415l0.282,37.146l-25.089,-0.412l0.073,-5.897l11.932,-3.717l1.372,-24.78Zm36.832,-46.497l-7.832,-5.971l-0.155,-6.697l38.091,-0.024l-1.169,6.408l-7.88,3.545l-32.29,46.256l-3.58,-6.374l14.815,-37.143Z" style="fill:#ef2929;"/><path d="M176.664,42.427c0.538,1.083 1.132,2.231 1.751,3.353l0.019,0.035l9.223,16.903l8.672,-14.535c0.01,-0.018 0.021,-0.035 0.032,-0.053c1.114,-1.838 2.158,-3.814 2.989,-5.478c-0.101,-0.008 -0.201,-0.015 -0.3,-0.02c-4.412,-0.243 -7.866,-3.891 -7.866,-8.311l0,-2.447c0,-4.597 3.726,-8.323 8.323,-8.323l27.386,-0c4.598,-0 8.324,3.726 8.324,8.323l-0,2.447c-0,4.169 -3.084,7.694 -7.215,8.249c-1.085,0.146 -1.994,0.234 -2.581,0.715c-1.861,1.573 -4.574,5.982 -8.585,12.928c-0.022,0.038 -0.045,0.076 -0.067,0.113l-18.266,30.505l-0,19.397c-0,1.666 0.095,3.422 0.175,4.604c0.248,0.001 0.527,-0.027 0.829,-0.027l5.027,0c4.598,0 8.324,3.727 8.324,8.323l-0,2.448c-0,4.596 -3.726,8.323 -8.324,8.323l-50.341,-0c-4.597,-0 -8.323,-3.727 -8.323,-8.323l-0,-2.448c-0,-4.596 3.726,-8.323 8.323,-8.323l4.696,0c0.452,0 0.862,0.025 1.222,0.002c0.078,-1.109 0.181,-2.888 0.181,-4.579l-0,-15.858l-20.069,-36.55c-2.978,-5.391 -6.396,-10.302 -6.859,-10.961c-0.445,-0.244 -1.046,-0.205 -1.725,-0.215c-4.546,-0.07 -8.194,-3.776 -8.194,-8.323l-0,-2.447c-0,-4.597 3.726,-8.323 8.322,-8.323l43,-0c4.596,-0 8.322,3.726 8.322,8.323l0,2.447c0,3.944 -2.742,7.247 -6.425,8.106Zm-15.918,68.249c0.05,-0.021 0.099,-0.046 0.146,-0.074c0.111,-0.066 0.223,-0.13 0.336,-0.191c-0.154,0.083 -0.324,0.162 -0.482,0.265Zm66.147,-78.802l-27.386,0l-0,2.447c4.014,0.221 6.769,0.882 8.269,1.985c1.147,0.794 1.72,1.786 1.72,2.977c0,2.161 -2.006,6.549 -6.02,13.164l-16.141,27.056l-16.207,-29.702c-3.528,-6.395 -5.292,-10.386 -5.292,-11.973c-0,-0.838 0.518,-1.632 1.555,-2.382c1.035,-0.749 2.855,-1.125 5.457,-1.125l1.919,0l-0,-2.447l-43,0l0,2.447c2.867,0.044 5.161,0.739 6.881,2.084c1.72,1.345 4.674,5.81 8.864,13.396l21.102,38.434l0,17.993c0,4.499 -0.242,7.277 -0.728,8.336c-0.661,1.499 -1.565,2.558 -2.711,3.175c-1.545,0.926 -3.639,1.389 -6.286,1.389l-4.696,0l0,2.448l50.341,0l0,-2.448l-5.027,0c-2.381,0 -4.289,-0.43 -5.722,-1.29c-1.433,-0.86 -2.392,-1.852 -2.878,-2.977c-0.485,-1.124 -0.728,-4.002 -0.728,-8.633l0,-21.698l19.449,-32.48c4.763,-8.247 8.248,-13.296 10.452,-15.149c1.588,-1.322 3.859,-2.182 6.813,-2.58l0,-2.447Z" style="fill:#280000;"/></g><path d="M149.725,177.971c4.903,4.932 4.881,12.918 -0.052,17.822c-4.933,4.904 -12.918,4.881 -17.822,-0.052l-95.056,-95.604c-4.905,-4.932 -4.882,-12.918 0.051,-17.822c4.932,-4.904 12.917,-4.881 17.822,0.051l95.057,95.605Z" style="fill:#c00;"/><path d="M155.45,172.279c8.045,8.093 8.007,21.193 -0.085,29.239c-8.092,8.045 -21.193,8.007 -29.239,-0.085l-95.056,-95.604c-8.047,-8.092 -8.008,-21.194 0.084,-29.239c8.092,-8.046 21.194,-8.008 29.239,0.084l95.057,95.605Zm-5.725,5.692l-95.057,-95.605c-4.905,-4.932 -12.89,-4.955 -17.822,-0.051c-4.933,4.904 -4.956,12.89 -0.051,17.822l95.056,95.604c4.904,4.933 12.889,4.956 17.822,0.052c4.933,-4.904 4.955,-12.89 0.052,-17.822Z" style="fill:#280000;"/><path d="M150.355,178.719c2.512,2.524 2.5,6.612 -0.026,9.123c-2.525,2.511 -6.614,2.5 -9.125,-0.026l-104.523,-104.919c5.698,-6.675 14.296,-4.655 18.618,0.216l95.056,95.606Z" style="fill:#ef2929;"/><path id="path6475" d="M127.288,221.914c-13.508,-13.217 34.725,-60.626 47.481,-49.288l18.543,67.278l-66.024,-17.99Z" style="fill:#c00;fill-rule:nonzero;"/><path d="M122.341,226.969c-4.45,-4.354 -5.678,-10.833 -3.273,-18.469c2.457,-7.8 9.032,-17.278 17.085,-25.414c9.498,-9.596 21.017,-17.183 29.437,-18.849c5.698,-1.127 10.451,0.057 13.878,3.103c1.02,0.907 1.756,2.09 2.119,3.407l18.544,67.277c0.675,2.45 -0.016,5.075 -1.811,6.874c-1.794,1.799 -4.416,2.498 -6.867,1.83l-66.024,-17.99c-1.163,-0.318 -2.226,-0.926 -3.088,-1.769Zm4.947,-5.055l66.024,17.99l-18.543,-67.278c-12.756,-11.338 -60.989,36.071 -47.481,49.288Z" style="fill:#280000;"/><path id="path6475-6" d="M129.273,219.345c-9.979,-10.592 36.55,-52.166 43.053,-44.421l16.27,60.436l-59.323,-16.015Z" style="fill:none;stroke:#ef2929;stroke-width:7.39px;"/></g></svg>

<?xml version="1.0" encoding="UTF-8" standalone="no"?>
<!DOCTYPE svg PUBLIC "-//W3C//DTD SVG 1.1//EN" "http://www.w3.org/Graphics/SVG/1.1/DTD/svg11.dtd">
<svg width="100%" height="100%" viewBox="0 0 1113 1113" version="1.1" xmlns="http://www.w3.org/2000/svg" xmlns:xlink="http://www.w3.org/1999/xlink" xml:space="preserve" xmlns:serif="http://www.serif.com/" style="fill-rule:evenodd;clip-rule:evenodd;">
    <g transform="matrix(4.16667,0,0,4.16667,0,0)">
        <g id="Layer-1" serif:id="Layer 1">
            <g transform="matrix(1,0,0,1,0,119.582)">
                <path d="M226.893,31.874L226.893,34.321C223.939,34.719 221.668,35.579 220.08,36.901C217.876,38.754 214.391,43.803 209.628,52.05L190.179,84.53L190.179,106.228C190.179,110.859 190.422,113.737 190.907,114.861C191.393,115.986 192.352,116.978 193.785,117.838C195.218,118.698 197.126,119.128 199.507,119.128L204.534,119.128L204.534,121.576L154.193,121.576L154.193,119.128L158.889,119.128C161.536,119.128 163.63,118.665 165.175,117.739C166.321,117.122 167.225,116.063 167.886,114.564C168.372,113.505 168.614,110.727 168.614,106.228L168.614,88.235L147.512,49.801C143.322,42.215 140.368,37.75 138.648,36.405C136.928,35.06 134.634,34.365 131.767,34.321L131.767,31.874L174.767,31.874L174.767,34.321L172.848,34.321C170.246,34.321 168.426,34.697 167.391,35.446C166.354,36.196 165.836,36.99 165.836,37.828C165.836,39.415 167.6,43.406 171.128,49.801L187.335,79.503L203.476,52.447C207.49,45.832 209.496,41.444 209.496,39.283C209.496,38.092 208.923,37.1 207.776,36.306C206.276,35.203 203.521,34.542 199.507,34.321L199.507,31.874L226.893,31.874Z" style="fill:rgb(115,210,22);fill-rule:nonzero;"/>
                <path d="M165.288,88.764L137.2,38.986L130.294,38.123L127.481,30.886L147.357,31.009L176.718,86.424L177,123.57L151.911,123.158L151.984,117.261L163.916,113.544L165.288,88.764ZM202.12,42.267L194.288,36.296L194.133,29.599L232.224,29.575L231.055,35.983L223.175,39.528L190.885,85.784L187.305,79.41L202.12,42.267Z" style="fill:rgb(138,226,52);"/>
                <path d="M176.664,42.427C177.202,43.51 177.796,44.658 178.415,45.78L178.434,45.815L187.657,62.718L196.329,48.183C196.339,48.165 196.35,48.148 196.361,48.13C197.475,46.292 198.519,44.316 199.35,42.652C199.249,42.644 199.149,42.637 199.05,42.632C194.638,42.389 191.184,38.741 191.184,34.321L191.184,31.874C191.184,27.277 194.91,23.551 199.507,23.551L226.893,23.551C231.491,23.551 235.217,27.277 235.217,31.874L235.217,34.321C235.217,38.49 232.133,42.015 228.002,42.57C226.917,42.716 226.008,42.804 225.421,43.285C223.56,44.858 220.847,49.267 216.836,56.213C216.814,56.251 216.791,56.289 216.769,56.326L198.503,86.831L198.503,106.228C198.503,107.894 198.598,109.65 198.678,110.832C198.926,110.833 199.205,110.805 199.507,110.805L204.534,110.805C209.132,110.805 212.858,114.532 212.858,119.128L212.858,121.576C212.858,126.172 209.132,129.899 204.534,129.899L154.193,129.899C149.596,129.899 145.87,126.172 145.87,121.576L145.87,119.128C145.87,114.532 149.596,110.805 154.193,110.805L158.889,110.805C159.341,110.805 159.751,110.83 160.111,110.807C160.189,109.698 160.292,107.919 160.292,106.228L160.292,90.37L140.223,53.82C137.245,48.429 133.827,43.518 133.364,42.859C132.919,42.615 132.318,42.654 131.639,42.644C127.093,42.574 123.445,38.868 123.445,34.321L123.445,31.874C123.445,27.277 127.171,23.551 131.767,23.551L174.767,23.551C179.363,23.551 183.089,27.277 183.089,31.874L183.089,34.321C183.089,38.265 180.347,41.568 176.664,42.427ZM160.746,110.676C160.796,110.655 160.845,110.63 160.892,110.602C161.003,110.536 161.115,110.472 161.228,110.411C161.074,110.494 160.904,110.573 160.746,110.676ZM226.893,31.874L199.507,31.874L199.507,34.321C203.521,34.542 206.276,35.203 207.776,36.306C208.923,37.1 209.496,38.092 209.496,39.283C209.496,41.444 207.49,45.832 203.476,52.447L187.335,79.503L171.128,49.801C167.6,43.406 165.836,39.415 165.836,37.828C165.836,36.99 166.354,36.196 167.391,35.446C168.426,34.697 170.246,34.321 172.848,34.321L174.767,34.321L174.767,31.874L131.767,31.874L131.767,34.321C134.634,34.365 136.928,35.06 138.648,36.405C140.368,37.75 143.322,42.215 147.512,49.801L168.614,88.235L168.614,106.228C168.614,110.727 168.372,113.505 167.886,114.564C167.225,116.063 166.321,117.122 165.175,117.739C163.63,118.665 161.536,119.128 158.889,119.128L154.193,119.128L154.193,121.576L204.534,121.576L204.534,119.128L199.507,119.128C197.126,119.128 195.218,118.698 193.785,117.838C192.352,116.978 191.393,115.986 190.907,114.861C190.422,113.737 190.179,110.859 190.179,106.228L190.179,84.53L209.628,52.05C214.391,43.803 217.876,38.754 220.08,36.901C221.668,35.579 223.939,34.719 226.893,34.321L226.893,31.874Z" style="fill:rgb(11,21,33);"/>
            </g>
            <path id="path6475-3-5" d="M196.971,96.927C213.48,81.878 205.909,35.4 167.787,27.243L240.062,42.003L196.971,96.927Z" style="fill:rgb(115,210,22);fill-rule:nonzero;"/>
            <path id="path6571" d="M191.673,41.876L235.61,48.457" style="fill:none;fill-rule:nonzero;stroke:rgb(138,226,52);stroke-width:8.28px;"/>
            <path d="M155.721,32.87C168.966,25.223 188.229,33.753 198.711,51.907C209.192,70.061 206.947,91.008 193.702,98.656C180.456,106.303 161.194,97.773 150.713,79.618C140.232,61.465 142.476,40.517 155.721,32.87Z" style="fill:rgb(138,226,52);stroke:rgb(11,21,33);stroke-width:8.32px;stroke-linecap:round;stroke-linejoin:round;stroke-miterlimit:1.5;"/>
            <path id="path6475-3-5-1" d="M169.004,30.241L242.455,41.169L199.607,93.478" style="fill:none;fill-rule:nonzero;stroke:rgb(11,21,33);stroke-width:8.32px;stroke-linecap:round;stroke-linejoin:round;stroke-miterlimit:32.2;"/>
            <path d="M39.46,132.858C33.504,135.26 26.575,133.013 23.995,127.842C21.414,122.673 24.155,116.524 30.109,114.122L164.289,59.991C170.244,57.589 177.174,59.836 179.754,65.006C182.334,70.176 179.595,76.325 173.639,78.727L39.46,132.858Z" style="fill:rgb(115,210,22);"/>
            <path d="M42.574,140.576C32.484,144.646 20.919,140.319 16.547,131.56C11.869,122.184 16.197,110.76 26.995,106.403L161.176,52.273C171.264,48.203 182.829,52.53 187.201,61.289C191.88,70.665 187.552,82.088 176.753,86.445L42.574,140.576ZM39.46,132.858L173.639,78.727C179.595,76.325 182.334,70.176 179.754,65.006C177.174,59.836 170.244,57.589 164.289,59.991L30.109,114.122C24.155,116.524 21.414,122.673 23.995,127.842C26.575,133.013 33.504,135.26 39.46,132.858Z" style="fill:rgb(11,21,33);"/>
            <path d="M23.883,127.689C23.234,126.773 20.677,119.153 29.18,114.479L165.218,59.646C172.646,57.179 178.303,61.332 179.551,64.578L23.883,127.689Z" style="fill:rgb(138,226,52);"/>
        </g>
    </g>
</svg>
